TV/Source/Dajto HD.svg

<svg height="2.669681mm" viewBox="0 0 6.0676365 2.6696811" width="6.067637mm" xmlns="http://www.w3.org/2000/svg"><g transform="translate(33.271914 -60.563969)"><path d="m0 0v-1.85l.991-.992h2.916v1.85l-.879.992z" fill="#fcc400" transform="matrix(.35277777 0 0 -.35277777 -28.58258 60.563969)"/><path d="m0 0v-.685h-.333v.685h-.427v-1.726h.427v.635h.333v-.635h.425v1.726z" transform="matrix(.35277777 0 0 -.35277777 -28.065055 60.759866)"/><path d="m0 0v-1.726h.935l.24.24v1.246l-.24.24zm.428-.335h.252l.068-.067v-.921l-.068-.068h-.252z" transform="matrix(.35277777 0 0 -.35277777 -27.83836 60.761454)"/><path d="m-28.679912 61.626325h-.381706v.763411h.381706zm-.763764 1.14547v-1.527175h.763764l.381705.381705v1.14547z" fill="#e20023"/><path d="m0 0v-5.835h2.164v1.082h-1.082v2.165h1.082v1.081h-1.082v1.507z" fill="#e20023" transform="matrix(.35277777 0 0 -.35277777 -30.302477 60.713194)"/><g fill="#fff"><path d="m0 0v-1.507h-2.165v-3.246l1.082-1.083h2.165v5.836zm-1.083-2.588h1.083v-2.164h-1.083z" transform="matrix(.35277777 0 0 -.35277777 -32.50815 60.713194)"/><path d="m-31.265067 62.390089h-.381706v-.304447h.381706zm-.763764-.763764h.763764v.07761h-.763764v1.067859h1.145469v-1.527174h-1.145469z"/><path d="m0 0v-4.555l1.083-1.083v5.638z" transform="matrix(.35277777 0 0 -.35277777 -30.787935 61.244689)"/><path d="m-30.787759 61.167361h.382058v-.454025h-.382058z"/></g></g></svg>

<?xml version="1.0" encoding="UTF-8" standalone="no"?>
<!-- Created with Inkscape (http://www.inkscape.org/) -->

<svg
   xmlns:dc="http://purl.org/dc/elements/1.1/"
   xmlns:cc="http://creativecommons.org/ns#"
   xmlns:rdf="http://www.w3.org/1999/02/22-rdf-syntax-ns#"
   xmlns:svg="http://www.w3.org/2000/svg"
   xmlns="http://www.w3.org/2000/svg"
   xmlns:sodipodi="http://sodipodi.sourceforge.net/DTD/sodipodi-0.dtd"
   xmlns:inkscape="http://www.inkscape.org/namespaces/inkscape"
   width="6.0676365mm"
   height="2.6696811mm"
   viewBox="0 0 6.0676365 2.6696811"
   version="1.1"
   id="svg44236"
   inkscape:version="0.92.0 r15299"
   sodipodi:docname="Dajto HD.svg">
  <defs
     id="defs44230" />
  <sodipodi:namedview
     id="base"
     pagecolor="#ffffff"
     bordercolor="#666666"
     borderopacity="1.0"
     inkscape:pageopacity="0.0"
     inkscape:pageshadow="2"
     inkscape:zoom="15.839192"
     inkscape:cx="12.808371"
     inkscape:cy="14.974947"
     inkscape:document-units="mm"
     inkscape:current-layer="layer1"
     showgrid="false"
     fit-margin-top="0"
     fit-margin-left="0"
     fit-margin-right="0"
     fit-margin-bottom="0"
     inkscape:window-width="1920"
     inkscape:window-height="1017"
     inkscape:window-x="-8"
     inkscape:window-y="-8"
     inkscape:window-maximized="1" />
  <metadata
     id="metadata44233">
    <rdf:RDF>
      <cc:Work
         rdf:about="">
        <dc:format>image/svg+xml</dc:format>
        <dc:type
           rdf:resource="http://purl.org/dc/dcmitype/StillImage" />
        <dc:title></dc:title>
      </cc:Work>
    </rdf:RDF>
  </metadata>
  <g
     inkscape:label="Layer 1"
     inkscape:groupmode="layer"
     id="layer1"
     transform="translate(33.271914,-60.563969)">
    <g
       id="g22602"
       transform="matrix(0.35277777,0,0,-0.35277777,-28.58258,60.563969)">
      <path
         d="m 0,0 v -1.85 l 0.991,-0.992 h 2.916 v 1.85 L 3.028,0 Z"
         style="fill:#fcc400;fill-opacity:1;fill-rule:nonzero;stroke:none"
         id="path22604"
         inkscape:connector-curvature="0" />
    </g>
    <g
       id="g22606"
       transform="matrix(0.35277777,0,0,-0.35277777,-28.065055,60.759866)">
      <path
         d="M 0,0 V -0.685 H -0.333 V 0 H -0.76 v -1.726 h 0.427 v 0.635 H 0 V -1.726 H 0.425 V 0 Z"
         style="fill:#000000;fill-opacity:1;fill-rule:nonzero;stroke:none"
         id="path22608"
         inkscape:connector-curvature="0" />
    </g>
    <g
       id="g22610"
       transform="matrix(0.35277777,0,0,-0.35277777,-27.83836,60.761454)">
      <path
         d="m 0,0 v -1.726 h 0.935 l 0.24,0.24 V -0.24 L 0.935,0 Z M 0.428,-0.335 H 0.68 L 0.748,-0.402 V -1.323 L 0.68,-1.391 H 0.428 Z"
         style="fill:#000000;fill-opacity:1;fill-rule:nonzero;stroke:none"
         id="path22612"
         inkscape:connector-curvature="0" />
    </g>
    <path
       d="m -28.679912,61.626325 h -0.381706 v 0.763411 h 0.381706 z m -0.763764,1.14547 V 61.24462 h 0.763764 l 0.381705,0.381705 v 1.14547 z"
       style="fill:#e20023;fill-opacity:1;fill-rule:nonzero;stroke:none;stroke-width:0.35277775"
       id="path22614"
       inkscape:connector-curvature="0" />
    <g
       id="g22616"
       transform="matrix(0.35277777,0,0,-0.35277777,-30.302477,60.713194)">
      <path
         d="m 0,0 v -5.835 h 2.164 v 1.082 H 1.082 v 2.165 h 1.082 v 1.081 H 1.082 V 0 Z"
         style="fill:#e20023;fill-opacity:1;fill-rule:nonzero;stroke:none"
         id="path22618"
         inkscape:connector-curvature="0" />
    </g>
    <g
       id="g22620"
       transform="matrix(0.35277777,0,0,-0.35277777,-32.50815,60.713194)"
       style="fill:#ffffff;fill-opacity:1">
      <path
         d="m 0,0 v -1.507 h -2.165 v -3.246 l 1.082,-1.083 H 1.082 V 0 Z M -1.083,-2.588 H 0 v -2.164 h -1.083 z"
         style="fill:#ffffff;fill-opacity:1;fill-rule:nonzero;stroke:none"
         id="path22622"
         inkscape:connector-curvature="0" />
    </g>
    <path
       d="m -31.265067,62.390089 h -0.381706 v -0.304447 h 0.381706 z m -0.763764,-0.763764 h 0.763764 v 0.07761 h -0.763764 v 1.067859 h 1.145469 V 61.24462 h -1.145469 z"
       style="fill:#ffffff;fill-opacity:1;fill-rule:nonzero;stroke:none;stroke-width:0.35277775"
       id="path22624"
       inkscape:connector-curvature="0" />
    <g
       id="g22626"
       transform="matrix(0.35277777,0,0,-0.35277777,-30.787935,61.244689)"
       style="fill:#ffffff;fill-opacity:1">
      <path
         d="M 0,0 V -4.555 L 1.083,-5.638 V 0 Z"
         style="fill:#ffffff;fill-opacity:1;fill-rule:nonzero;stroke:none"
         id="path22628"
         inkscape:connector-curvature="0" />
    </g>
    <path
       d="m -30.787759,61.167361 h 0.382058 v -0.454025 h -0.382058 z"
       style="fill:#ffffff;fill-opacity:1;fill-rule:nonzero;stroke:none;stroke-width:0.35277775"
       id="path22630"
       inkscape:connector-curvature="0" />
  </g>
</svg>
